source/img/header-logo-desktop.svg

<svg width="129" height="23" viewBox="0 0 129 23" fill="none" xmlns="http://www.w3.org/2000/svg">
<path d="M0.496094 0.1521V23.0001H3.53609V12.5361H15.5681V23.0001H18.6081V0.1521H15.5681V9.9761H3.53609V0.1521H0.496094ZM23.5899 0.1521V23.0001H39.4619V20.4401H26.6299V12.5361H38.5019V9.9761H26.6299V2.7121H39.3659V0.1521H23.5899ZM43.1524 0.1521V23.0001H58.2883V20.4401H46.1924V0.1521H43.1524ZM66.8111 13.6561L75.5471 0.1521H72.0911L65.4031 11.0321L58.5551 0.1521H54.9391L63.7711 13.6561V23.0001H66.8111V13.6561ZM78.1211 0.1521V23.0001H81.1611V12.5361H91.6571V9.9761H81.1611V2.7121H93.1291V0.1521H78.1211ZM96.4961 0.1521V23.0001H111.632V20.4401H99.5361V0.1521H96.4961ZM120.155 13.6561L128.891 0.1521H125.435L118.747 11.0321L111.899 0.1521H108.283L117.115 13.6561V23.0001H120.155V13.6561Z" fill="black"/>
</svg>

<svg width="129" height="23" fill="none" xmlns="http://www.w3.org/2000/svg"><path d="M.496.152V23h3.04V12.536h12.032V23h3.04V.152h-3.04v9.824H3.536V.152H.496zm23.094 0V23h15.872v-2.56H26.63v-7.904h11.872v-2.56H26.63V2.712h12.736V.152H23.59zm19.562 0V23h15.136v-2.56H46.192V.152h-3.04zm23.66 13.504L75.546.152H72.09l-6.688 10.88L58.555.152H54.94l8.832 13.504V23h3.04v-9.344zM78.121.152V23h3.04V12.536h10.495v-2.56H81.161V2.712H93.13V.152H78.121zm18.374 0V23h15.136v-2.56H99.536V.152h-3.04zm23.659 13.504L128.891.152h-3.456l-6.688 10.88-6.848-10.88h-3.616l8.832 13.504V23h3.04v-9.344z" fill="#000"/></svg>
